Numix/16/status/indicator-keyboard-Cs-2.svg

<?xml version="1.0" encoding="UTF-8" standalone="no"?>
<svg
   xmlns:dc="http://purl.org/dc/elements/1.1/"
   xmlns:cc="http://creativecommons.org/ns#"
   xmlns:rdf="http://www.w3.org/1999/02/22-rdf-syntax-ns#"
   xmlns:svg="http://www.w3.org/2000/svg"
   xmlns="http://www.w3.org/2000/svg"
   xmlns:sodipodi="http://sodipodi.sourceforge.net/DTD/sodipodi-0.dtd"
   xmlns:inkscape="http://www.inkscape.org/namespaces/inkscape"
   viewBox="0 0 16 16"
   id="svg2"
   version="1.1"
   inkscape:version="0.91 r13725"
   sodipodi:docname="indicator-keyboard-Cs-2.svg">
  <metadata
     id="metadata14">
    <rdf:RDF>
      <cc:Work
         rdf:about="">
        <dc:format>image/svg+xml</dc:format>
        <dc:type
           rdf:resource="http://purl.org/dc/dcmitype/StillImage" />
      </cc:Work>
    </rdf:RDF>
  </metadata>
  <defs
     id="defs12" />
  <sodipodi:namedview
     pagecolor="#ffffff"
     bordercolor="#666666"
     borderopacity="1"
     objecttolerance="10"
     gridtolerance="10"
     guidetolerance="10"
     inkscape:pageopacity="0"
     inkscape:pageshadow="2"
     inkscape:window-width="640"
     inkscape:window-height="480"
     id="namedview10"
     showgrid="false"
     inkscape:zoom="14.75"
     inkscape:cx="8"
     inkscape:cy="8"
     inkscape:window-x="65"
     inkscape:window-y="24"
     inkscape:window-maximized="0"
     inkscape:current-layer="svg2" />
  <path
     style="fill:#ececec;fill-opacity:1"
     d="M 1.5996094 0 C 0.71320937 2.9605947e-16 0 0.71320937 0 1.5996094 L 0 14.400391 C 2.9605947e-16 15.286791 0.71320937 16 1.5996094 16 L 14.400391 16 C 15.286791 16 16 15.286791 16 14.400391 L 16 1.5996094 C 16 0.71320937 15.286791 0 14.400391 0 L 1.5996094 0 z M 5.0878906 4.7246094 C 5.3218906 4.7246094 5.5345625 4.7395312 5.7265625 4.7695312 C 5.9185625 4.7995313 6.0864687 4.8387187 6.2304688 4.8867188 C 6.3744688 4.9287188 6.4976094 4.9734844 6.5996094 5.0214844 C 6.7016094 5.0634844 6.7799844 5.1026719 6.8339844 5.1386719 L 6.6367188 5.6699219 C 6.4867188 5.5799219 6.2945469 5.4922031 6.0605469 5.4082031 C 5.8325469 5.3182031 5.5470781 5.2734375 5.2050781 5.2734375 C 4.8150781 5.2734375 4.4736875 5.3387031 4.1796875 5.4707031 C 3.8916875 5.6027031 3.6472187 5.7892969 3.4492188 6.0292969 C 3.2512187 6.2692969 3.102 6.5547656 3 6.8847656 C 2.904 7.2147656 2.8554688 7.5804219 2.8554688 7.9824219 C 2.8554688 8.3964219 2.904 8.7714219 3 9.1074219 C 3.102 9.4374219 3.2494063 9.719125 3.4414062 9.953125 C 3.6334063 10.187125 3.8665781 10.366188 4.1425781 10.492188 C 4.4245781 10.618187 4.7454688 10.681641 5.1054688 10.681641 C 5.5014687 10.681641 5.8317031 10.646219 6.0957031 10.574219 C 6.3657031 10.496219 6.5690313 10.417844 6.7070312 10.339844 L 6.8789062 10.861328 C 6.8369062 10.891328 6.7641094 10.928703 6.6621094 10.970703 C 6.5601094 11.006703 6.4313906 11.045891 6.2753906 11.087891 C 6.1193906 11.129891 5.9403281 11.161547 5.7363281 11.185547 C 5.5323281 11.215547 5.3047344 11.230469 5.0527344 11.230469 C 4.6507344 11.230469 4.2757344 11.159625 3.9277344 11.015625 C 3.5857344 10.871625 3.2853438 10.660766 3.0273438 10.384766 C 2.7753438 10.108765 2.5738281 9.7691875 2.4238281 9.3671875 C 2.2798281 8.9591875 2.2070312 8.4946562 2.2070312 7.9726562 C 2.2070312 7.4506563 2.2854063 6.9898906 2.4414062 6.5878906 C 2.6034062 6.1798906 2.8160781 5.8365469 3.0800781 5.5605469 C 3.3440781 5.2845469 3.6500469 5.0774531 3.9980469 4.9394531 C 4.3460469 4.7954531 4.7098906 4.7246094 5.0878906 4.7246094 z M 9.1679688 6.3359375 C 9.4859688 6.3359375 9.7471719 6.3620156 9.9511719 6.4160156 C 10.161172 6.4700156 10.308578 6.5185469 10.392578 6.5605469 L 10.257812 7.0820312 C 10.185813 7.0460313 10.062672 6.9975 9.8886719 6.9375 C 9.7206719 6.8775 9.470625 6.8476563 9.140625 6.8476562 C 9.008625 6.8476562 8.8836719 6.8625781 8.7636719 6.8925781 C 8.6496719 6.9165781 8.5470313 6.9595312 8.4570312 7.0195312 C 8.3670312 7.0735313 8.2961875 7.144375 8.2421875 7.234375 C 8.1881875 7.318375 8.1601562 7.4247812 8.1601562 7.5507812 C 8.1601562 7.6767813 8.1844219 7.7830469 8.2324219 7.8730469 C 8.2804219 7.9630469 8.3494531 8.0451875 8.4394531 8.1171875 C 8.5354531 8.1831875 8.64925 8.2466406 8.78125 8.3066406 C 8.91925 8.3666406 9.076 8.4319063 9.25 8.5039062 C 9.43 8.5759062 9.5997188 8.6505156 9.7617188 8.7285156 C 9.9297188 8.8005156 10.077125 8.8900469 10.203125 8.9980469 C 10.329125 9.1000469 10.431766 9.2269531 10.509766 9.3769531 C 10.587766 9.5209531 10.626953 9.7037812 10.626953 9.9257812 C 10.626953 10.345781 10.466438 10.664859 10.148438 10.880859 C 9.8364375 11.096859 9.4092812 11.203125 8.8632812 11.203125 C 8.4552813 11.203125 8.1417812 11.167703 7.9257812 11.095703 C 7.7097812 11.029703 7.5661406 10.979359 7.4941406 10.943359 L 7.6464844 10.412109 C 7.6644844 10.424109 7.7036719 10.444609 7.7636719 10.474609 C 7.8236719 10.498609 7.9058125 10.528453 8.0078125 10.564453 C 8.1098125 10.594453 8.2291875 10.622484 8.3671875 10.646484 C 8.5111875 10.670484 8.6772813 10.681641 8.8632812 10.681641 C 9.1992813 10.681641 9.4734531 10.627531 9.6894531 10.519531 C 9.9114533 10.405531 10.023438 10.217125 10.023438 9.953125 C 10.023438 9.827125 10.002938 9.7189063 9.9609375 9.6289062 C 9.9249375 9.5389062 9.8614844 9.4587188 9.7714844 9.3867188 C 9.6814844 9.3147187 9.5621094 9.2456875 9.4121094 9.1796875 C 9.2681094 9.1136875 9.0870937 9.0353125 8.8710938 8.9453125 C 8.6970938 8.8733125 8.5329531 8.8005156 8.3769531 8.7285156 C 8.2209531 8.6505156 8.0828906 8.56475 7.9628906 8.46875 C 7.8428906 8.36675 7.7458281 8.2454219 7.6738281 8.1074219 C 7.6018281 7.9694219 7.5664062 7.8015156 7.5664062 7.6035156 C 7.5664062 7.2255156 7.7082344 6.9195469 7.9902344 6.6855469 C 8.2782344 6.4515469 8.6699687 6.3359375 9.1679688 6.3359375 z M 12.464844 8.7539062 C 12.858744 8.7539062 13.154616 8.851875 13.353516 9.046875 C 13.552416 9.237975 13.652344 9.5044563 13.652344 9.8476562 C 13.652344 9.9997563 13.624913 10.14475 13.570312 10.28125 C 13.515712 10.41385 13.441256 10.543169 13.347656 10.667969 C 13.257956 10.792769 13.154109 10.912297 13.037109 11.029297 C 12.920109 11.146297 12.800587 11.263859 12.679688 11.380859 C 12.578288 11.478359 12.480312 11.578288 12.382812 11.679688 C 12.289212 11.777188 12.203 11.877116 12.125 11.978516 C 12.0509 12.076016 11.990159 12.172031 11.943359 12.269531 C 11.900459 12.363131 11.878906 12.457181 11.878906 12.550781 L 11.878906 12.5625 L 13.791016 12.5625 L 13.791016 12.896484 L 11.457031 12.896484 C 11.457031 12.888684 11.455039 12.874969 11.451172 12.855469 L 11.451172 12.755859 C 11.451172 12.572559 11.484481 12.402094 11.550781 12.246094 C 11.617081 12.086194 11.701334 11.937275 11.802734 11.796875 C 11.908034 11.656475 12.023638 11.525197 12.148438 11.404297 C 12.277137 11.283397 12.400578 11.165834 12.517578 11.052734 C 12.615078 10.959134 12.705216 10.869003 12.791016 10.783203 C 12.880716 10.693503 12.959091 10.603366 13.025391 10.509766 C 13.091691 10.416166 13.144594 10.316237 13.183594 10.210938 C 13.222594 10.105638 13.242187 9.9900344 13.242188 9.8652344 C 13.242188 9.5922344 13.167731 9.39825 13.019531 9.28125 C 12.875231 9.16035 12.693003 9.0996094 12.470703 9.0996094 C 12.345903 9.0996094 12.234219 9.1152844 12.136719 9.1464844 C 12.039219 9.1776844 11.953006 9.2149125 11.878906 9.2578125 C 11.808706 9.2968125 11.747966 9.3379594 11.697266 9.3808594 C 11.646566 9.4237594 11.609337 9.4570688 11.585938 9.4804688 L 11.386719 9.2167969 C 11.410119 9.1894969 11.451266 9.1503094 11.509766 9.0996094 C 11.572166 9.0450094 11.648581 8.9921062 11.738281 8.9414062 C 11.831881 8.8907063 11.939647 8.8476 12.060547 8.8125 C 12.181447 8.7735 12.316644 8.7539063 12.464844 8.7539062 z "
     id="path4" />
</svg>

<svg xmlns="http://www.w3.org/2000/svg" viewBox="0 0 16 16">
 <path d="m 1.6 0 c -0.886 0 -1.6 0.713 -1.6 1.6 l 0 12.801 c 0 0.886 0.713 1.6 1.6 1.6 l 12.801 0 c 0.886 0 1.6 -0.713 1.6 -1.6 l 0 -12.801 c 0 -0.886 -0.713 -1.6 -1.6 -1.6 l -12.801 0 z m 3.488 4.725 c 0.234 0 0.447 0.015 0.639 0.045 c 0.192 0.03 0.36 0.069 0.504 0.117 c 0.144 0.042 0.267 0.087 0.369 0.135 c 0.102 0.042 0.18 0.081 0.234 0.117 l -0.197 0.531 c -0.15 -0.09 -0.342 -0.178 -0.576 -0.262 c -0.228 -0.09 -0.513 -0.135 -0.855 -0.135 c -0.39 0 -0.731 0.065 -1.025 0.197 c -0.288 0.132 -0.532 0.319 -0.73 0.559 c -0.198 0.24 -0.347 0.525 -0.449 0.855 c -0.096 0.33 -0.145 0.696 -0.145 1.098 c 0 0.414 0.049 0.789 0.145 1.125 c 0.102 0.33 0.249 0.612 0.441 0.846 c 0.192 0.234 0.425 0.413 0.701 0.539 c 0.282 0.126 0.603 0.189 0.963 0.189 c 0.396 0 0.726 -0.035 0.99 -0.107 c 0.27 -0.078 0.473 -0.156 0.611 -0.234 l 0.172 0.521 c -0.042 0.03 -0.115 0.067 -0.217 0.109 c -0.102 0.036 -0.231 0.075 -0.387 0.117 c -0.156 0.042 -0.335 0.074 -0.539 0.098 c -0.204 0.03 -0.432 0.045 -0.684 0.045 c -0.402 0 -0.777 -0.071 -1.125 -0.215 c -0.342 -0.144 -0.642 -0.355 -0.9 -0.631 c -0.252 -0.276 -0.454 -0.616 -0.604 -1.018 c -0.144 -0.408 -0.217 -0.873 -0.217 -1.395 c 0 -0.522 0.078 -0.983 0.234 -1.385 c 0.162 -0.408 0.375 -0.751 0.639 -1.027 c 0.264 -0.276 0.57 -0.483 0.918 -0.621 c 0.348 -0.144 0.712 -0.215 1.09 -0.215 z m 4.08 1.611 c 0.318 0 0.579 0.026 0.783 0.08 c 0.21 0.054 0.357 0.103 0.441 0.145 l -0.135 0.521 c -0.072 -0.036 -0.195 -0.085 -0.369 -0.145 c -0.168 -0.06 -0.418 -0.09 -0.748 -0.09 c -0.132 0 -0.257 0.015 -0.377 0.045 c -0.114 0.024 -0.217 0.067 -0.307 0.127 c -0.09 0.054 -0.161 0.125 -0.215 0.215 c -0.054 0.084 -0.082 0.19 -0.082 0.316 c 0 0.126 0.024 0.232 0.072 0.322 c 0.048 0.09 0.117 0.172 0.207 0.244 c 0.096 0.066 0.21 0.129 0.342 0.189 c 0.138 0.06 0.295 0.125 0.469 0.197 c 0.18 0.072 0.35 0.147 0.512 0.225 c 0.168 0.072 0.315 0.162 0.441 0.27 c 0.126 0.102 0.229 0.229 0.307 0.379 c 0.078 0.144 0.117 0.327 0.117 0.549 c 0 0.42 -0.161 0.739 -0.479 0.955 c -0.312 0.216 -0.739 0.322 -1.285 0.322 c -0.408 0 -0.721 -0.035 -0.937 -0.107 c -0.216 -0.066 -0.36 -0.116 -0.432 -0.152 l 0.152 -0.531 c 0.018 0.012 0.057 0.033 0.117 0.063 c 0.06 0.024 0.142 0.054 0.244 0.09 c 0.102 0.03 0.221 0.058 0.359 0.082 c 0.144 0.024 0.31 0.035 0.496 0.035 c 0.336 0 0.61 -0.054 0.826 -0.162 c 0.222 -0.114 0.334 -0.302 0.334 -0.566 c 0 -0.126 -0.021 -0.234 -0.063 -0.324 c -0.036 -0.09 -0.099 -0.17 -0.189 -0.242 c -0.09 -0.072 -0.209 -0.141 -0.359 -0.207 c -0.144 -0.066 -0.325 -0.144 -0.541 -0.234 c -0.174 -0.072 -0.338 -0.145 -0.494 -0.217 c -0.156 -0.078 -0.294 -0.164 -0.414 -0.26 c -0.12 -0.102 -0.217 -0.223 -0.289 -0.361 c -0.072 -0.138 -0.107 -0.306 -0.107 -0.504 c 0 -0.378 0.142 -0.684 0.424 -0.918 c 0.288 -0.234 0.68 -0.35 1.178 -0.35 z m 3.297 2.418 c 0.394 0 0.69 0.098 0.889 0.293 c 0.199 0.191 0.299 0.458 0.299 0.801 c 0 0.152 -0.027 0.297 -0.082 0.434 c -0.055 0.133 -0.129 0.262 -0.223 0.387 c -0.09 0.125 -0.194 0.244 -0.311 0.361 c -0.117 0.117 -0.237 0.235 -0.357 0.352 c -0.101 0.098 -0.199 0.197 -0.297 0.299 c -0.094 0.098 -0.18 0.197 -0.258 0.299 c -0.074 0.097 -0.135 0.194 -0.182 0.291 c -0.043 0.094 -0.064 0.188 -0.064 0.281 l 0 0.012 l 1.912 0 l 0 0.334 l -2.334 0 c 0 -0.008 -0.002 -0.022 -0.006 -0.041 l 0 -0.1 c 0 -0.183 0.033 -0.354 0.1 -0.51 c 0.066 -0.16 0.151 -0.309 0.252 -0.449 c 0.105 -0.14 0.221 -0.272 0.346 -0.393 c 0.129 -0.121 0.252 -0.238 0.369 -0.352 c 0.098 -0.094 0.188 -0.184 0.273 -0.27 c 0.09 -0.09 0.168 -0.18 0.234 -0.273 c 0.066 -0.094 0.119 -0.194 0.158 -0.299 c 0.039 -0.105 0.059 -0.221 0.059 -0.346 c 0 -0.273 -0.074 -0.467 -0.223 -0.584 c -0.144 -0.121 -0.327 -0.182 -0.549 -0.182 c -0.125 0 -0.236 0.016 -0.334 0.047 c -0.098 0.031 -0.184 0.068 -0.258 0.111 c -0.07 0.039 -0.131 0.08 -0.182 0.123 c -0.051 0.043 -0.088 0.076 -0.111 0.1 l -0.199 -0.264 c 0.023 -0.027 0.065 -0.066 0.123 -0.117 c 0.062 -0.055 0.139 -0.108 0.229 -0.158 c 0.094 -0.051 0.201 -0.094 0.322 -0.129 c 0.121 -0.039 0.256 -0.059 0.404 -0.059 z" style="fill:#ececec;fill-opacity:1"/>
</svg>
